X:1
T:Title
%%score { 1 | 2 }
L:1/8
Q:1/4=100
M:4/4
K:Bb
V:1 treble nm="Grand Piano"
V:2 bass 
V:1
 [DF]2 [B,D][CE] [DF]2 [DF]2 | [DB]2 [FA][EG] [DF]4 | [FB][FB][FB][FB] [EA]2 [DB]2 | [Fd]4 [Fc]4 | %4
w: Wm.~J.~Kirkpatrick * * * *||||
 [DF]2 [B,D][CE] [DF]2 [DF]2 | [DB]2 [FA][EG] [DF]4 | [FB][FB][FB][FB] [EA]2 [DB]2 | [Ec]4 [DB]4 | %8
w: ||||
 [Fd]2 [DB][Ec] [Fd]2 [Ge]2 | [Fd]2 [Ec][DB] c4 | c2 AB c2 d2 | c2 BA [DB]4 | %12
w: ||||
 [DB]2 [FA][EG] [DF]2 [DB]2 | d2 cd [Ge]4 | dcBc d2 c2 | c4 [DB]4 |] %16
w: ||||
V:2
 [B,,B,]2 [B,,F,][B,,F,] [B,,B,]2 [B,,B,]2 | [B,,F,]2 [B,,F,][B,,F,] [B,,B,]4 | %2
 [D,B,][D,B,][D,B,][D,B,] [C,F,]2 [B,,F,]2 | [F,B,]4 [F,A,]4 | %4
 [B,,B,]2 [B,,F,][B,,F,] [B,,B,]2 [B,,B,]2 | [B,,F,]2 [B,,F,][B,,F,] [B,,B,]4 | %6
 [D,B,][D,B,][D,B,][D,B,] [C,F,]2 [B,,F,]2 | [F,A,]4 [B,,F,B,]4 | %8
 [B,,B,]2 [B,,F,][B,,F,] [B,,B,]2 [B,,B,]2 | [B,,B,]2 [B,,F,][B,,F,] [F,A,E]4 | %10
 [F,A,E]2 [F,C][F,D] [F,A,E]2 [F,B,F]2 | [F,A,E]2 [F,D][F,C] [B,,F,]4 | %12
 [B,,F,]2 [B,,F,][B,,F,] [B,,B,]2 [B,,B,]2 | [B,F]2 [A,B,E][B,F][K:bass] [E,B,]4 | %14
 [F,B,F][F,B,E][F,B,D][F,B,E] [F,B,F]2 [F,B,F]2 | [F,A,E]4 [B,,F,B,]4 |] %16

